X:1
T:Quizás, Quizás, Quizás
T:Quizás, Quizás, Quizás
T:Osvaldo Farres
T:Osvaldo Farres
C:Osvaldo Farres
Z:All Rights Reserved
L:1/8
M:2/2
K:C
V:1 treble 
V:1
"Cm""F7" z4"F7""F#dim7" z2"F#dim7" z2 |"Cm" z8 |"Dm""Bm7b5" z4"Bm7b5" z4 | %3
w: |||
"E7" z2 z E, ^F,^G,A,B, |:"Am" C3 A,- A,2 A,2 |"Dm""E7" D4"E7" (3B,2 D2 B,2 |"Am" C3 A,- A,2 A,2 | %7
w: Siem- \-pre que te pre-|gun- to * que|cuan- do co- mo~y|don- de, * tu|
"Dm""E7" D4"E7" (3B,2 D2 B,2 |"Am" E3 C-"E7" C2"E7" E,2 |"Am" C2 z"E7" A,"E7" B,2 z ^G, | %10
w: siem- pre me res-|pon- des * "qui-|zás, qui- zás, qui-|
"Am""Dm6" A,8- |"Am" A,2 z"E7" E,"E7" ^F,^G,A,B, |"Am" C3 A,- A,2 A,2 | %13
w: zás."|* Y~a- si pa- san los|dí- as * y|
"Dm""E7" D4"E7" (3B,2 D2 B,2 |"Am" C3 A,- A,2 A,2 |"Dm""E7" D4"E7" (3B,2 D2 B,2 | %16
w: yo de- ses- pe-|ra- do * y|tú, tú con- tes-|
"Am" E3 C-"E7" C2"E7" E,2 |"Am" C2 z"E7" A,"E7" B,2 z ^G, |"Am""Dm6" A,8- | %19
w: tan- do * "qui-|zás, qui- zás" qui-|zás."|
"Am" A,2 z"Bm7" E"Bm7" AAAA |"E7" ^G3 D-"Bm7" D2"Bm7" A2 |"E7" ^G3 D- D2 G2 |"A" ^F3 ^C- C4- | %23
w: * Es- tas per- dien- do~el|tiem- po * pen-|san- do * pen-|san- do; *|
 C2 z"Bm7" E"Bm7" AAAA |"E7" ^G3 D- D"Bm7" A2"Bm7" A |"E7" ^G3 D- D G2 G |"A" ^F3 ^C- C4- | %27
w: * por lo que más tú|quie- ras * has- ta|cuan- do * has- ta|cuan- do *|
 C2 z"E7" E,"E7" ^F,^G,A,B, |"Am" C3 A,- A,2 A,2 |"E7" D4"E7" (3B,2 D2 B,2 |"Am" C3 A,- A,2 A,2 | %31
w: * Y~a- si pa- san los|dí- as, * y|yo de- ses- pe-|ra- do * y|
"Dm""E7" D4"E7" (3B,2 D2 B,2 |"Am" E3 (C"E7" C2)"E7" E,2 |"Am" C2 z"E7" A,"E7" B,2 z ^G, |1 %34
w: tú, tú con- tes-|tan- do * "qui-|zás, qui- zás, qui-|
"Am""Bm7b5" A,6"Bm7b5" z2 |"E7" z2 z E, ^F,^G,A,B, :|2"Am""Dm6" A,8- |"Am" A,6 z2 |] %38
w: zás."|Siem\-- \-pre que te pre|zás.||

